X: 3
T:Ribchester Bridge Hornpipe
M:3/2
L:1/4
S:Marsden
Z:ps
K:G min
FdEdD2 | Cc2GA/B/ c/A/ | FdEdD2 | B,B2GA/B/ c/A/ || 
dB2FD2 | Cc2GA/B/ c/A/ | dB2FD2 | B,B2GA/B/ c/A/ || 
Bgfe/d/ e/d/c/B/ | A/B/ c/d/cG A/B/ c/A/ | Bgfe/d/ g/f/g/a/ | bB2G A/B/ c/A/ | | 
Bgfe/d/ e/d/c/B/ | A/B/ c/d/cG A/B/ c/A/ | FBEBD2 | B,B2GA/B/ c/A/ || 
FBEBD/E/F/D/ | CcGBA/B/c/A/ | FBEBD/E/F/D/ | B,AGBA/B/c/A/ || 
d/c/B/A/ B/A/G/F/ G/F/E/D/ | CcGB A/B/c/A/ | d/c/B/A/ B/A/G/F/ D/E/ F/D/ | B,BBGA/B/c/A/ || 
dBBB,D/E/F/D/ | CccGA/B/c/A/ | dBBFD/E/F/D/ | B,BGBA/B/c/A/ || 
dBFBdB | GcGBA/B/c/A/ | dBFBe/d/c/B/ | FBBGA/B/c/A/ || 

